svgs/duotone/gopuram.svg

<svg xmlns="http://www.w3.org/2000/svg" viewBox="0 0 512 512"><!--! Font Awesome Pro 6.0.0-alpha3 by @fontawesome - https://fontawesome.com License - https://fontawesome.com/license (Commercial License) --><defs><style>.fa-secondary{opacity:.4}</style></defs><path class="fa-primary" d="M496 352h-15.1l-.0001-112c0-8.75-7.25-16-16-16h-15.1V144c0-8.75-7.25-16-16-16h-15.1l0-112c0-8.75-7.25-16-16-16s-16 7.25-16 16L384 32h-64l0-16c0-8.75-7.25-16-16-16s-16 7.25-16 16V32h-64V16c0-8.75-7.25-16-16-16s-16 7.25-16 16L192 32H128L128 16c0-8.75-7.25-16-16-16s-16 7.25-16 16L96 128H80C71.25 128 64 135.3 64 144V224H48c-8.75 0-16 7.25-16 16L32 352H16c-8.75 0-16 7.25-16 16l0 128c0 8.75 7.25 16 16 16h80v-160h31.1l0-128h31.1l.0001-96h31.1L191.1 224H160l.025 128H128l0 160h79.96l.0418-80c0-8.75 7.25-16 16-16h64c8.75 0 16 7.25 16 16L304 512h80v-160h-31.98l-.025-128h-32.03l.0251-96h32l-.0001 96h32v128h32v160h79.1c8.75 0 16-7.25 16-16v-128C512 359.3 504.8 352 496 352zM232 176c0-8.75 7.25-16 16-16h16c8.75 0 16 7.25 16 16L280 224h-48L232 176zM288 352h-64l0-64c0-8.75 7.25-16 16-16h32c8.75 0 15.1 7.25 15.1 16L288 352z"/><path class="fa-secondary" d="M160 224h31.97l.025-96H160L160 224zM320 128l-.0251 96h32.03l.0001-96H320zM128 352h32.02L160 224H128L128 352zM352 224l.025 128h31.98V224H352zM96 512h32l0-160H96V512zM384 352v160h32v-160H384z"/></svg>

<svg xmlns="http://www.w3.org/2000/svg" viewBox="0 0 512 512"><!-- Font Awesome Pro 6.0.0-alpha2 by @fontawesome - https://fontawesome.com License - https://fontawesome.com/license (Commercial License) --><defs><style>.fa-secondary{opacity:.4}</style></defs><path d="M160 224H192V128H160V224ZM320 128V224H352V128H320ZM128 352H160V224H128V352ZM352 224V352H384V224H352ZM96 512H128V352H96V512ZM384 352V512H416V352H384Z" class="fa-secondary"/><path d="M496 352H480V240C480 231.25 472.75 224 464 224H448V144C448 135.25 440.75 128 432 128H416V16C416 7.25 408.75 0 400 0S384 7.25 384 16V32H320V16C320 7.25 312.75 0 304 0S288 7.25 288 16V32H224V16C224 7.25 216.75 0 208 0S192 7.25 192 16V32H128V16C128 7.25 120.75 0 112 0S96 7.25 96 16V128H80C71.25 128 64 135.25 64 144V224H48C39.25 224 32 231.25 32 240V352H16C7.25 352 0 359.25 0 368V496C0 504.75 7.25 512 16 512H96V352H128V224H160V128H192V224H160V352H128V512H208V432C208 423.25 215.25 416 224 416H288C296.75 416 304 423.25 304 432V512H384V352H352V224H320V128H352V224H384V352H416V512H496C504.75 512 512 504.75 512 496V368C512 359.25 504.75 352 496 352ZM232 176C232 167.25 239.25 160 248 160H264C272.75 160 280 167.25 280 176V224H232V176ZM288 352H224V288C224 279.25 231.25 272 240 272H272C280.75 272 288 279.25 288 288V352Z" class="fa-primary"/></svg>
